X:1372
T:"The Grey Daylight"  (reel)     1372
C:after Mr. McNamara
B:O'Neill's Music Of Ireland (The 1850) Lyon & Healy, Chicago, 1903 edition
Z:FROM O'NEILL'S TO NOTEWORTHY, FROM NOTEWORTHY TO ABC, MIDI AND .TXT BY VINCE
BRENNAN July 2003 (HTTP://WWW.SOSYOURMOM.COM)
I:abc2nwc
M:C|
L:1/8
K:D
(A/2G/2F/2E/2)"^Segno"|:D2(FA) DAFA|A,2(CE) A,ECE|D2(FA) DAFA|
[1 (3(Bcd) (3(cde) dBAF:|[2 (3(Bcd) (3(cde) dfec||
d2(fd) gefd| (3(BBB) (ed) cABc| (3(ddd) (fd) gefd|(3(Bcd) (3(cde) dfec|
d2(fd) gefd| (3(BBB) (ed) cABc|defg abag|fdec dBA"^Dal Segno"F|]
